images/Tech_spring.svg

<svg width="130" height="34" viewBox="0 0 130 34" fill="none" xmlns="http://www.w3.org/2000/svg">
<path d="M42.7281 23.1809C42.3304 22.9661 42.0244 22.5063 42.0244 21.8935C42.0244 21.0674 42.6669 20.3975 43.5267 20.3975C43.8313 20.3975 44.1081 20.4871 44.3209 20.6098C45.8847 21.6518 47.5081 22.1727 48.976 22.1727C50.5681 22.1727 51.4866 21.4982 51.4866 20.4251V20.3644C51.4866 19.1088 49.7729 18.6807 47.8728 18.0994C45.4856 17.4251 42.8213 16.4463 42.8213 13.3528V13.2908C42.8213 10.228 45.3629 8.36067 48.5785 8.36067C50.2938 8.36067 52.0997 8.85134 53.6616 9.67692C54.1836 9.9534 54.5492 10.4436 54.5492 11.085C54.5492 11.9434 53.8766 12.5879 53.0192 12.5879C52.7114 12.5879 52.5278 12.5264 52.2855 12.4032C50.9665 11.7286 49.6196 11.2992 48.4869 11.2992C47.0466 11.2992 46.2196 11.9746 46.2196 12.8938V12.9534C46.2196 14.1481 47.9651 14.6368 49.8643 15.2505C52.2223 15.9859 54.8866 17.0571 54.8866 19.9661V20.0282C54.8866 23.427 52.2516 25.1094 48.8839 25.1094C46.8335 25.1094 44.5979 24.4685 42.7281 23.1809Z" fill="#989898"/>
<path d="M69.2415 16.7514V16.6894C69.2415 13.5673 67.128 11.5153 64.6182 11.5153C62.1072 11.5153 59.9025 13.5976 59.9025 16.6894V16.7514C59.9025 19.8443 62.1072 21.9286 64.6182 21.9286C67.1597 21.9286 69.2415 19.9367 69.2415 16.7514ZM56.2881 10.2277C56.2881 9.18847 57.0833 8.36041 58.1267 8.36041C59.1671 8.36041 59.994 9.18847 59.994 10.2277V11.3318C61.1884 9.64829 62.8722 8.30036 65.5064 8.30036C69.3029 8.30036 73.0088 11.3 73.0088 16.6894V16.7514C73.0088 22.1111 69.3338 25.1419 65.5064 25.1419C62.8118 25.1419 61.1272 23.7931 59.994 22.2958V28.019C59.994 29.064 59.1671 29.8604 58.1267 29.8604C57.1167 29.8604 56.2881 29.064 56.2881 28.019V10.2277Z" fill="#989898"/>
<path d="M74.4121 10.2299C74.4121 9.19072 75.206 8.3626 76.2476 8.3626C77.2913 8.3626 78.1169 9.19072 78.1169 10.2299V11.1208C78.3018 9.73318 80.5657 8.3626 82.1895 8.3626C83.3524 8.3626 84.0271 9.12756 84.0271 10.1988C84.0271 11.1779 83.3835 11.8221 82.5564 11.9749C79.9228 12.4344 78.1169 14.7389 78.1169 17.9271V23.2694C78.1169 24.2811 77.2913 25.1074 76.2476 25.1074C75.2378 25.1074 74.4121 24.3108 74.4121 23.2694V10.2299Z" fill="#989898"/>
<path d="M85.4287 10.2374C85.4287 9.19651 86.2275 8.36839 87.267 8.36839C88.3079 8.36839 89.135 9.19651 89.135 10.2374V23.2724C89.135 24.3122 88.3079 25.1074 87.267 25.1074C86.2558 25.1074 85.4287 24.3122 85.4287 23.2724V10.2374Z" fill="#989898"/>
<path d="M91.0029 10.244C91.0029 9.20307 91.7996 8.37692 92.8391 8.37692C93.8814 8.37692 94.7078 9.20307 94.7078 10.244V11.0043C95.7508 9.50327 97.2489 8.36754 99.7598 8.36754C103.404 8.36754 105.518 10.8184 105.518 14.5539V23.2696C105.518 24.3102 104.721 25.1074 103.68 25.1074C102.639 25.1074 101.813 24.3102 101.813 23.2696V15.6874C101.813 13.1776 100.557 11.7372 98.3519 11.7372C96.2088 11.7372 94.7078 13.2376 94.7078 15.7505V23.2696C94.7078 24.3102 93.8814 25.1074 92.8391 25.1074C91.8293 25.1074 91.0029 24.3102 91.0029 23.2696V10.244Z" fill="#989898"/>
<path d="M115.312 21.8947C112.768 21.8947 110.688 19.9036 110.688 16.7184V16.6583C110.688 13.5353 112.799 11.4833 115.312 11.4833C117.824 11.4833 120.028 13.5662 120.028 16.6583V16.7184C120.028 19.812 117.824 21.8947 115.312 21.8947ZM121.801 8.32845C120.761 8.32845 119.934 9.15706 119.934 10.1966V11.2987C118.739 9.61519 117.057 8.26804 114.424 8.26804C110.625 8.26804 106.921 11.2678 106.921 16.6583V16.7184C106.921 22.078 110.595 25.108 114.424 25.108C117.103 25.108 118.783 23.7752 119.917 22.2853C119.732 25.197 117.949 26.7344 114.822 26.7344C112.956 26.7344 111.332 26.2735 109.86 25.4452C109.677 25.3555 109.466 25.2949 109.189 25.2949C108.332 25.2949 107.625 26 107.625 26.8243C107.625 27.5291 108.024 28.0496 108.669 28.2946C110.626 29.2443 112.645 29.7344 114.913 29.7344C117.824 29.7344 120.09 29.0306 121.56 27.56C122.905 26.2115 123.64 24.1929 123.64 21.466V10.1966C123.64 9.15706 122.844 8.32845 121.801 8.32845Z" fill="#989898"/>
<path d="M89.1497 3.90626C89.1497 4.93663 88.3128 5.77441 87.2811 5.77441C86.2486 5.77441 85.4138 4.93663 85.4138 3.90626C85.4138 2.87307 86.2486 2.03895 87.2811 2.03895C88.3128 2.03895 89.1497 2.87307 89.1497 3.90626Z" fill="#989898"/>
<path d="M30.2964 24.0006C26.1886 29.4738 17.4136 27.6263 11.7877 27.8921C11.7877 27.8921 10.7917 27.9475 9.78861 28.1126C9.78861 28.1126 10.1679 27.9508 10.6517 27.784C14.603 26.4176 16.4703 26.143 18.8713 24.9098C23.3824 22.5989 27.872 17.5653 28.7855 12.3364C27.0685 17.3655 21.8461 21.6939 17.091 23.4515C13.8363 24.6525 7.95052 25.8214 7.94967 25.8218C7.95242 25.826 7.7151 25.6986 7.71178 25.6959C3.70897 23.7484 3.59348 15.0789 10.8634 12.2844C14.0508 11.0582 17.0996 11.7317 20.5453 10.9115C24.2204 10.0377 28.4768 7.28304 30.2069 3.68158C32.1464 9.43432 34.4762 18.4345 30.2964 24.0006ZM30.3678 1.89895C29.8788 3.06079 29.282 4.10774 28.594 5.04419C25.5656 1.93614 21.3387 -0.000324249 16.6666 -0.000324249C7.47608 -0.000324249 0 7.47661 0 16.6654C0 21.4825 2.05613 25.8269 5.33425 28.872L5.69922 29.1954C5.08974 28.6984 4.99602 27.8033 5.49 27.1933C5.98701 26.583 6.8829 26.4884 7.49267 26.9827C8.10407 27.478 8.19722 28.3753 7.70219 28.9864C7.20898 29.5978 6.31146 29.6902 5.70088 29.1968L5.94925 29.4167C8.84892 31.8582 12.5868 33.333 16.6666 33.333C25.4512 33.333 32.6646 26.4967 33.2821 17.8681C33.7394 13.6433 32.4915 8.27876 30.3678 1.89895Z" fill="#989898"/>
<path d="M127.979 9.49568H127.397V10.2664H127.979C128.168 10.2664 128.374 10.1143 128.374 9.89016C128.374 9.64782 128.168 9.49568 127.979 9.49568ZM128.338 11.4038L127.773 10.5438H127.397V11.4038H127.093V9.22667H127.979C128.347 9.22667 128.688 9.48714 128.688 9.89016C128.688 10.3736 128.257 10.5352 128.132 10.5352L128.715 11.4038H128.338ZM127.818 8.69818C126.922 8.69818 126.205 9.41488 126.205 10.3114C126.205 11.1979 126.922 11.9239 127.818 11.9239C128.705 11.9239 129.431 11.1979 129.431 10.3114C129.431 9.41488 128.705 8.69818 127.818 8.69818ZM127.818 12.2109C126.77 12.2109 125.919 11.3594 125.919 10.3114C125.919 9.25335 126.77 8.41125 127.818 8.41125C128.876 8.41125 129.718 9.25335 129.718 10.3114C129.718 11.3594 128.876 12.2109 127.818 12.2109Z" fill="#989898"/>
</svg>

<?xml version="1.0" encoding="UTF-8" standalone="no"?><!DOCTYPE svg PUBLIC "-//W3C//DTD SVG 1.1//EN" "http://www.w3.org/Graphics/SVG/1.1/DTD/svg11.dtd"><svg width="100%" height="100%" viewBox="0 0 130 34" version="1.1" xmlns="http://www.w3.org/2000/svg" xmlns:xlink="http://www.w3.org/1999/xlink" xml:space="preserve" xmlns:serif="http://www.serif.com/" style="fill-rule:evenodd;clip-rule:evenodd;stroke-linejoin:round;stroke-miterlimit:2;"><path d="M42.728,23.181c-0.398,-0.215 -0.704,-0.674 -0.704,-1.287c0,-0.826 0.643,-1.496 1.503,-1.496c0.304,0 0.581,0.089 0.794,0.212c1.564,1.042 3.187,1.563 4.655,1.563c1.592,0 2.511,-0.674 2.511,-1.748l0,-0.06c0,-1.256 -1.714,-1.684 -3.614,-2.265c-2.387,-0.675 -5.052,-1.653 -5.052,-4.747l0,-0.062c0,-3.063 2.542,-4.93 5.757,-4.93c1.716,-0 3.522,0.491 5.084,1.316c0.522,0.277 0.887,0.767 0.887,1.408c0,0.859 -0.672,1.503 -1.53,1.503c-0.308,-0 -0.491,-0.061 -0.734,-0.184c-1.319,-0.675 -2.665,-1.104 -3.798,-1.104c-1.44,0 -2.267,0.675 -2.267,1.594l0,0.06c0,1.194 1.745,1.683 3.644,2.297c2.358,0.735 5.023,1.806 5.023,4.715l0,0.063c0,3.398 -2.635,5.081 -6.003,5.081c-2.05,0 -4.286,-0.641 -6.156,-1.929Z" style="fill:#9ea5a7;fill-rule:nonzero;"/><path d="M69.242,16.752l-0.001,-0.062c0.001,-3.122 -2.113,-5.174 -4.623,-5.174c-2.511,0 -4.715,2.082 -4.715,5.174l0,0.062c0,3.093 2.204,5.177 4.715,5.177c2.542,0 4.624,-1.992 4.624,-5.177Zm-12.954,-6.524c0,-1.039 0.795,-1.867 1.839,-1.867c1.04,0 1.867,0.828 1.867,1.867l0,1.104c1.194,-1.683 2.878,-3.031 5.512,-3.031c3.797,-0 7.503,2.999 7.503,8.389l0,0.062c0,5.359 -3.675,8.39 -7.503,8.39c-2.694,0 -4.379,-1.349 -5.512,-2.846l0,5.723c0,1.045 -0.827,1.842 -1.867,1.842c-1.01,0 -1.839,-0.797 -1.839,-1.842l0,-17.791Z" style="fill:#9ea5a7;fill-rule:nonzero;"/><path d="M74.412,10.23c0,-1.039 0.794,-1.867 1.836,-1.867c1.043,0 1.869,0.828 1.869,1.867l0,0.891c0.185,-1.387 2.449,-2.758 4.072,-2.758c1.163,0 1.838,0.765 1.838,1.836c0,0.979 -0.644,1.623 -1.471,1.776c-2.633,0.46 -4.439,2.764 -4.439,5.952l0,5.343c0,1.011 -0.826,1.838 -1.869,1.838c-1.01,0 -1.836,-0.797 -1.836,-1.838l0,-13.04Z" style="fill:#9ea5a7;fill-rule:nonzero;"/><path d="M85.429,10.238c0,-1.041 0.799,-1.869 1.838,-1.869c1.041,0 1.868,0.828 1.868,1.869l0,13.035c0,1.04 -0.827,1.835 -1.868,1.835c-1.011,0 -1.838,-0.795 -1.838,-1.835l0,-13.035Z" style="fill:#9ea5a7;fill-rule:nonzero;"/><path d="M91.003,10.244c0,-1.041 0.797,-1.867 1.836,-1.867c1.042,0 1.869,0.826 1.869,1.867l0,0.761c1.043,-1.501 2.541,-2.637 5.052,-2.637c3.644,0 5.758,2.451 5.758,6.186l-0,8.716c-0,1.041 -0.797,1.838 -1.838,1.838c-1.041,0 -1.867,-0.797 -1.867,-1.838l-0,-7.582c-0,-2.51 -1.256,-3.95 -3.461,-3.95c-2.143,0 -3.644,1.5 -3.644,4.013l-0,7.519c-0,1.041 -0.827,1.838 -1.869,1.838c-1.01,0 -1.836,-0.797 -1.836,-1.838l-0,-13.026Z" style="fill:#9ea5a7;fill-rule:nonzero;"/><path d="M115.312,21.895c-2.544,0 -4.624,-1.991 -4.624,-5.176l0,-0.06c0,-3.123 2.111,-5.175 4.624,-5.175c2.512,0 4.716,2.083 4.716,5.175l0,0.06c0,3.093 -2.204,5.176 -4.716,5.176Zm6.489,-13.566c-1.04,-0 -1.867,0.828 -1.867,1.868l0,1.102c-1.195,-1.683 -2.877,-3.031 -5.51,-3.031c-3.799,-0 -7.503,3 -7.503,8.391l0,0.06c0,5.359 3.674,8.389 7.503,8.389c2.679,-0 4.359,-1.332 5.493,-2.822c-0.185,2.911 -1.968,4.449 -5.095,4.449c-1.866,0 -3.49,-0.461 -4.962,-1.289c-0.183,-0.09 -0.394,-0.151 -0.671,-0.151c-0.857,0 -1.564,0.705 -1.564,1.53c0,0.704 0.399,1.225 1.044,1.47c1.957,0.95 3.976,1.44 6.244,1.44c2.911,0 5.177,-0.704 6.647,-2.175c1.345,-1.348 2.08,-3.367 2.08,-6.094l0,-11.269c0,-1.04 -0.796,-1.868 -1.839,-1.868Z" style="fill:#9ea5a7;fill-rule:nonzero;"/><path d="M89.15,3.907c0,1.03 -0.837,1.868 -1.869,1.868c-1.032,-0 -1.867,-0.838 -1.867,-1.868c0,-1.034 0.835,-1.868 1.867,-1.868c1.032,-0 1.869,0.834 1.869,1.868Z" style="fill:#9ea5a7;fill-rule:nonzero;"/><path d="M30.296,24.001c-4.107,5.473 -12.882,3.626 -18.508,3.891c0,0 -0.996,0.056 -1.999,0.221c0,0 0.379,-0.162 0.863,-0.329c3.951,-1.366 5.818,-1.641 8.219,-2.874c4.511,-2.311 9.001,-7.344 9.915,-12.573c-1.718,5.029 -6.94,9.357 -11.695,11.115c-3.255,1.201 -9.14,2.37 -9.141,2.37c0.002,0.004 -0.235,-0.123 -0.238,-0.126c-4.003,-1.947 -4.119,-10.617 3.151,-13.411c3.188,-1.226 6.237,-0.553 9.682,-1.373c3.675,-0.874 7.932,-3.629 9.662,-7.23c1.939,5.753 4.269,14.753 0.089,20.319Zm0.072,-22.102c-0.489,1.162 -1.086,2.209 -1.774,3.146c-3.028,-3.109 -7.255,-5.045 -11.927,-5.045c-9.191,-0 -16.667,7.477 -16.667,16.666c0,4.817 2.056,9.161 5.334,12.206l0.365,0.324c-0.609,-0.497 -0.703,-1.392 -0.209,-2.002c0.497,-0.611 1.393,-0.705 2.003,-0.211c0.611,0.495 0.704,1.393 0.209,2.004c-0.493,0.611 -1.391,0.704 -2.001,0.21l0.248,0.22c2.9,2.442 6.638,3.916 10.718,3.916c8.784,0 15.998,-6.836 16.615,-15.465c0.457,-4.224 -0.79,-9.589 -2.914,-15.969Z" style="fill:#9ea5a7;fill-rule:nonzero;"/><path d="M127.979,9.496l-0.582,-0l0,0.771l0.582,-0c0.189,-0 0.395,-0.152 0.395,-0.377c0,-0.242 -0.206,-0.394 -0.395,-0.394Zm0.359,1.908l-0.565,-0.86l-0.376,0l0,0.86l-0.304,0l0,-2.177l0.886,0c0.368,0 0.709,0.26 0.709,0.663c0,0.484 -0.431,0.646 -0.556,0.646l0.583,0.868l-0.377,-0Zm-0.52,-2.705c-0.896,-0 -1.613,0.716 -1.613,1.613c0,0.886 0.717,1.612 1.613,1.612c0.887,-0 1.613,-0.726 1.613,-1.612c0,-0.897 -0.726,-1.613 -1.613,-1.613Zm0,3.512c-1.048,-0 -1.899,-0.851 -1.899,-1.899c0,-1.058 0.851,-1.9 1.899,-1.9c1.058,-0 1.9,0.842 1.9,1.9c0,1.048 -0.842,1.899 -1.9,1.899Z" style="fill:#9ea5a7;fill-rule:nonzero;"/></svg>
